src/topics/icons/handlebars.svg

<svg height="124" preserveAspectRatio="xMidYMid" viewBox="0 0 512 124" width="512" xmlns="http://www.w3.org/2000/svg"><path d="m188.431907.00086924c17.799136-.07753212 36.052388 5.02851223 49.886314 16.53649496 7.088641 5.7373776 12.814934 12.9367893 17.677299 20.6013938 8.750043-14.1440752 21.531748-26.1615548 37.292901-31.95431227 19.205789-7.2104878 40.914753-6.71206699 60.087312.35443257 16.746915 6.113962 31.389392 16.7690915 44.669518 28.4875187 10.38929 9.1709429 20.003261 19.2058153 30.702679 28.0334018 5.637685 4.5743955 11.696258 8.8608145 18.629836 11.2310822 9.215234 3.1455893 20.114019.1772164 26.704241-6.9225112 6.102878-6.6456108 5.726294-18.1314418-.99684-24.2010995-4.275337-3.6883141-11.585498-2.9462208-14.609247 1.9715311-2.647165 3.8987584-1.162979 8.7611304.908233 12.5380526-5.504773-4.0205945-11.020622-9.6250598-10.998471-16.9352318-1.140829-8.4510019 5.128189-15.9051619 12.637718-18.8624589 14.653552-5.8592135 33.028639-.8085493 42.277102 12.0950118 8.89403 12.0396318 9.602893 27.8672616 8.052253 42.2107051-1.871845 13.6235023-9.492135 26.3387708-20.789657 34.2248958-15.860834 11.319691-35.96378 14.830789-55.092034 14.587116-18.386165-.498421-36.584037-4.651928-53.618928-11.519059-28.487479-11.452602-55.147417-27.2802325-84.565279-36.4290233-9.757958-3.7879983-20.136172-5.8370617-30.569766-6.4683946-8.307001-.0553801-16.18204-.4430408-24.02385.0886081-9.569665.9193096-19.083952 2.8797648-28.044437 6.3908625-29.916283 9.3038553-56.974956 25.5302213-86.005158 37.0049763-24.511194 9.536452-51.6695514 13.966859-77.6870809 8.672522-14.553867-2.946221-29.0412782-9.381387-38.8656922-20.845066-8.40668582-9.7468956-12.43835068-22.794445-12.03961459-35.5761698-.4651921-12.0617838 2.18197246-24.8767368 10.15669419-34.2692002 7.4209215-8.9051185 19.3719282-13.4241339 30.8466665-12.4272923 7.3876935.3433566 14.8750712 3.5664778 19.4383843 9.5142995 3.5886247 4.7073077 3.8101447 11.1535503 2.2373523 16.6583313-1.9161483 4.9509802-5.8702812 8.8165104-10.1677702 11.7848833 2.1930485-3.69939 3.5221689-8.5839141.9303843-12.4494444-3.1898887-5.1503483-11.0427745-5.6709213-15.1962753-1.4398824-5.1171131 5.2611087-6.1914853 13.8560988-2.7579246 20.3023413 3.7215368 6.756371 11.4193585 10.6108253 18.873508 11.3972225 11.2753706.9746897 21.0554806-6.0142777 29.3292543-12.7928007 17.1234999-14.7421802 32.5412949-31.6109557 51.5366389-44.0825522 15.661468-10.5000652 34.114088-17.5997928 53.153736-17.51118466z" fill="#423426"/></svg>

<?xml version="1.0" encoding="UTF-8" standalone="no"?>
<svg width="512px" height="124px" viewBox="0 0 512 124" version="1.1" xmlns="http://www.w3.org/2000/svg" xmlns:xlink="http://www.w3.org/1999/xlink" preserveAspectRatio="xMidYMid">
    <g>
        <path d="M188.431907,0.000869242479 C206.231043,-0.0766628844 224.484295,5.02938147 238.318221,16.5373642 C245.406862,22.2747418 251.133155,29.4741535 255.99552,37.138758 C264.745563,22.9946828 277.527268,10.9772032 293.288421,5.18444573 C312.49421,-2.02604207 334.203174,-1.52762126 353.375733,5.5388783 C370.122648,11.6528403 384.765125,22.3079698 398.045251,34.026397 C408.434541,43.1973399 418.048512,53.2322123 428.74793,62.0597988 C434.385615,66.6341943 440.444188,70.9206133 447.377766,73.290881 C456.593,76.4364703 467.491785,73.4680974 474.082007,66.3683698 C480.184885,59.722759 479.808301,48.236928 473.085167,42.1672703 C468.80983,38.4789562 461.499669,39.2210495 458.47592,44.1388014 C455.828755,48.0375598 457.312941,52.8999318 459.384153,56.676854 C453.87938,52.6562595 448.363531,47.0517942 448.385682,39.7416222 C447.244853,31.2906203 453.513871,23.8364603 461.0234,20.8791633 C475.676952,15.0199498 494.052039,20.070614 503.300502,32.9741751 C512.194532,45.0138069 512.903395,60.8414367 511.352755,75.1848802 C509.48091,88.8083825 501.86062,101.523651 490.563098,109.409776 C474.702264,120.729467 454.599318,124.240565 435.471064,123.996892 C417.084899,123.498471 398.887027,119.344964 381.852136,112.477833 C353.364657,101.025231 326.704719,85.1976005 297.286857,76.0488097 C287.528899,72.2608114 277.150685,70.211748 266.717091,69.5804151 C258.41009,69.525035 250.535051,69.1373743 242.693241,69.6690232 C233.123576,70.5883328 223.609289,72.548788 214.648804,76.0598857 C184.732521,85.363741 157.673848,101.590107 128.643646,113.064862 C104.132452,122.601314 76.9740946,127.031721 50.9565651,121.737384 C36.4026981,118.791163 21.9152869,112.355997 12.0908729,100.892318 C3.68418708,91.1454224 -0.347477777,78.097873 0.0512583107,65.3161482 C-0.413933793,53.2543644 2.23323077,40.4394114 10.2079525,31.046948 C17.628874,22.1418295 29.5798807,17.6228141 41.054619,18.6196557 C48.4423125,18.9630123 55.9296902,22.1861335 60.4930033,28.1339552 C64.081628,32.8412629 64.303148,39.2875055 62.7303556,44.7922865 C60.8142073,49.7432667 56.8600744,53.6087969 52.5625854,56.5771698 C54.7556339,52.8777798 56.0847543,47.9932557 53.4929697,44.1277254 C50.303081,38.9773771 42.4501952,38.4568041 38.2966944,42.687843 C33.1795813,47.9489517 32.1052091,56.5439418 35.5387698,62.9901843 C39.2603066,69.7465553 46.9581283,73.6010096 54.4122778,74.3874068 C65.6876484,75.3620965 75.4677584,68.3731291 83.7415321,61.5946061 C100.865032,46.8524259 116.282827,29.9836504 135.278171,17.5120539 C150.939639,7.0119887 169.392259,-0.0877389026 188.431907,0.000869242479 L188.431907,0.000869242479 L188.431907,0.000869242479 Z" fill="#423426"></path>
    </g>
</svg>
